flaticon/seo-and-analytics/worldwide-19.svg

<svg xmlns="http://www.w3.org/2000/svg" width="32" height="32" viewBox="0 0 24 24">
    <path d="M 23.59375 23.1875 L 23.1875 23.1875 L 23.1875 22.210938 C 23.1875 20.792969 22.457031 19.488281 21.28125 18.710938 C 22.457031 17.9375 23.1875 16.632812 23.1875 15.214844 L 23.1875 14.238281 L 23.59375 14.238281 C 23.835938 14.238281 24 14.074219 24 13.832031 C 24 13.585938 23.835938 13.421875 23.59375 13.421875 L 16.269531 13.421875 C 16.027344 13.421875 15.863281 13.585938 15.863281 13.832031 C 15.863281 14.074219 16.027344 14.238281 16.269531 14.238281 L 16.679688 14.238281 L 16.679688 15.171875 C 16.679688 16.601562 17.417969 17.917969 18.617188 18.691406 C 17.417969 19.464844 16.679688 20.78125 16.679688 22.210938 L 16.679688 23.1875 L 16.269531 23.1875 C 16.027344 23.1875 15.863281 23.347656 15.863281 23.59375 C 15.863281 23.835938 16.027344 24 16.269531 24 L 23.59375 24 C 23.835938 24 24 23.835938 24 23.59375 C 24 23.347656 23.835938 23.1875 23.59375 23.1875 Z M 17.492188 15.214844 L 17.492188 14.238281 L 22.371094 14.238281 L 22.371094 15.214844 C 22.371094 16.523438 21.597656 17.714844 20.351562 18.265625 L 19.511719 18.265625 C 18.265625 17.714844 17.492188 16.523438 17.492188 15.214844 Z M 17.492188 22.210938 C 17.492188 20.867188 18.304688 19.648438 19.605469 19.117188 L 20.257812 19.117188 C 21.558594 19.648438 22.371094 20.867188 22.371094 22.210938 L 22.371094 23.1875 L 17.492188 23.1875 Z M 17.492188 22.210938"/>
    <path d="M 23.1875 12.203125 C 23.429688 12.203125 23.59375 12.039062 23.59375 11.796875 C 23.59375 5.429688 18.53125 0.230469 12.214844 0.0078125 L 12.203125 0 L 11.960938 0 C 11.917969 0 11.835938 0 11.796875 0 C 11.757812 0 11.675781 0 11.632812 0 L 11.390625 0 L 11.378906 0.0078125 C 5.0625 0.230469 0 5.429688 0 11.796875 C 0 14.769531 1.105469 17.492188 2.925781 19.566406 C 2.9375 19.597656 2.953125 19.625 2.96875 19.648438 C 3.007812 19.703125 3.054688 19.742188 3.109375 19.769531 C 5.175781 22.023438 8.109375 23.46875 11.378906 23.585938 L 11.390625 23.59375 L 11.632812 23.59375 C 11.675781 23.59375 11.757812 23.59375 11.796875 23.59375 C 12.039062 23.59375 12.203125 23.429688 12.203125 23.1875 L 12.203125 12.203125 Z M 0.820312 12.203125 L 5.699219 12.203125 C 5.746094 13.925781 6.082031 15.601562 6.683594 17.175781 C 5.53125 17.59375 4.425781 18.15625 3.382812 18.851562 C 1.859375 17.039062 0.914062 14.730469 0.820312 12.203125 Z M 3.585938 4.503906 C 4.605469 5.160156 5.6875 5.6875 6.816406 6.082031 C 6.132812 7.75 5.75 9.542969 5.699219 11.390625 L 0.820312 11.390625 C 0.917969 8.753906 1.945312 6.351562 3.585938 4.503906 Z M 22.769531 11.390625 L 17.894531 11.390625 C 17.84375 9.542969 17.460938 7.746094 16.777344 6.078125 C 17.90625 5.683594 18.984375 5.152344 19.992188 4.488281 C 21.640625 6.335938 22.675781 8.746094 22.769531 11.390625 Z M 16.441406 5.320312 C 15.667969 3.6875 14.59375 2.191406 13.261719 0.910156 C 15.632812 1.226562 17.765625 2.304688 19.410156 3.886719 C 18.476562 4.484375 17.480469 4.960938 16.441406 5.320312 Z M 11.390625 6.09375 C 10.21875 6.0625 9.054688 5.882812 7.933594 5.566406 C 8.757812 3.867188 9.921875 2.332031 11.390625 1.054688 Z M 15.660156 5.566406 C 14.539062 5.882812 13.375 6.0625 12.203125 6.09375 L 12.203125 1.054688 C 13.667969 2.332031 14.835938 3.867188 15.660156 5.566406 Z M 7.152344 5.320312 C 6.113281 4.960938 5.117188 4.484375 4.183594 3.886719 C 5.824219 2.304688 7.960938 1.226562 10.332031 0.910156 C 9 2.191406 7.925781 3.6875 7.152344 5.320312 Z M 7.589844 6.328125 C 8.816406 6.679688 10.089844 6.875 11.390625 6.910156 L 11.390625 11.390625 L 6.515625 11.390625 C 6.5625 9.625 6.933594 7.914062 7.589844 6.328125 Z M 12.203125 6.910156 C 13.503906 6.875 14.777344 6.679688 16.003906 6.324219 C 16.660156 7.914062 17.03125 9.625 17.078125 11.390625 L 12.203125 11.390625 Z M 3.929688 19.457031 C 4.894531 18.8125 5.921875 18.296875 6.988281 17.914062 C 7.773438 19.6875 8.902344 21.308594 10.332031 22.683594 C 7.835938 22.347656 5.605469 21.175781 3.929688 19.457031 Z M 7.761719 17.660156 C 8.933594 17.316406 10.148438 17.125 11.390625 17.089844 L 11.390625 22.539062 C 9.820312 21.167969 8.59375 19.503906 7.761719 17.660156 Z M 11.390625 16.277344 C 10.042969 16.3125 8.722656 16.53125 7.453125 16.917969 C 6.882812 15.429688 6.558594 13.839844 6.515625 12.203125 L 11.390625 12.203125 Z M 11.390625 16.277344"/>
</svg>

<svg xmlns="http://www.w3.org/2000/svg" width="32" height="32" viewBox="0 0 24 24">
    <path d="M23.594 23.188h-.407v-.977c0-1.418-.73-2.723-1.906-3.5a4.193 4.193 0 0 0 1.907-3.496v-.977h.406a.385.385 0 0 0 .406-.406c0-.246-.164-.41-.406-.41H16.27c-.243 0-.407.164-.407.41 0 .242.164.406.407.406h.41v.934c0 1.43.738 2.746 1.937 3.52a4.192 4.192 0 0 0-1.937 3.519v.977h-.41c-.243 0-.407.16-.407.406 0 .242.164.406.407.406h7.324a.385.385 0 0 0 .406-.406c0-.246-.164-.407-.406-.407zm-6.102-7.973v-.977h4.88v.977c0 1.308-.774 2.5-2.02 3.05h-.84c-1.246-.55-2.02-1.742-2.02-3.05zm0 6.996c0-1.344.813-2.563 2.113-3.094h.653c1.3.531 2.113 1.75 2.113 3.094v.977h-4.879zm0 0"/>
    <path d="M23.188 12.203a.385.385 0 0 0 .406-.406C23.594 5.43 18.53.23 12.214.007L12.205 0H11.39l-.012.008C5.063.23 0 5.43 0 11.797c0 2.973 1.105 5.695 2.926 7.77a.377.377 0 0 0 .184.203c2.066 2.253 5 3.699 8.269 3.816l.012.008h.406a.385.385 0 0 0 .406-.407V12.204zm-22.368 0H5.7c.046 1.723.382 3.399.984 4.973-1.153.418-2.258.98-3.301 1.676A10.931 10.931 0 0 1 .82 12.203zm2.766-7.7a15.27 15.27 0 0 0 3.23 1.579A15.07 15.07 0 0 0 5.7 11.391H.82a10.958 10.958 0 0 1 2.766-6.887zm19.184 6.888h-4.875a15.092 15.092 0 0 0-1.118-5.313 14.576 14.576 0 0 0 3.215-1.59 10.93 10.93 0 0 1 2.778 6.903zM16.44 5.32a15.081 15.081 0 0 0-3.18-4.41 10.956 10.956 0 0 1 6.15 2.976 13.96 13.96 0 0 1-2.97 1.433zm-5.05.773a14.132 14.132 0 0 1-3.457-.528 14.162 14.162 0 0 1 3.457-4.511zm4.27-.528a14.132 14.132 0 0 1-3.458.528v-5.04a14.218 14.218 0 0 1 3.457 4.512zM7.151 5.32a13.96 13.96 0 0 1-2.968-1.433A10.944 10.944 0 0 1 10.332.91a15.081 15.081 0 0 0-3.18 4.41zm.438 1.008c1.226.352 2.5.547 3.8.582v4.48H6.517A14.213 14.213 0 0 1 7.59 6.329zm4.613.582c1.3-.035 2.574-.23 3.8-.586.657 1.59 1.028 3.301 1.075 5.067h-4.875zM3.93 19.457a14.052 14.052 0 0 1 3.058-1.543 15.092 15.092 0 0 0 3.344 4.77 10.98 10.98 0 0 1-6.402-3.227zm3.832-1.797a14.304 14.304 0 0 1 3.629-.57v5.45a14.257 14.257 0 0 1-3.63-4.88zm3.629-1.383a14.821 14.821 0 0 0-3.938.641 14.205 14.205 0 0 1-.937-4.715h4.875zm0 0"/>
</svg>
